src/img/discount.svg

<svg width="100" height="100" viewBox="0 0 100 100" fill="none" xmlns="http://www.w3.org/2000/svg">
<circle cx="50" cy="50" r="47.5" fill="#3E9CDC" stroke="#286690" stroke-width="5"/>
<path d="M59.7857 57.9643C59.7857 59.3705 58.6205 60.5357 57.2143 60.5357C55.808 60.5357 54.6429 59.3705 54.6429 57.9643C54.6429 56.558 55.808 55.3928 57.2143 55.3928C58.6205 55.3928 59.7857 56.558 59.7857 57.9643ZM44.3571 42.5357C44.3571 43.9419 43.192 45.1071 41.7857 45.1071C40.3795 45.1071 39.2143 43.9419 39.2143 42.5357C39.2143 41.1294 40.3795 39.9643 41.7857 39.9643C43.192 39.9643 44.3571 41.1294 44.3571 42.5357ZM64.9286 57.9643C64.9286 53.7053 61.4732 50.25 57.2143 50.25C52.9554 50.25 49.5 53.7053 49.5 57.9643C49.5 62.2232 52.9554 65.6786 57.2143 65.6786C61.4732 65.6786 64.9286 62.2232 64.9286 57.9643ZM63 36.1071C63 35.404 62.4174 34.8214 61.7143 34.8214H58.5C58.0982 34.8214 57.7165 35.0223 57.4754 35.3437L36.2612 63.6294C36.1004 63.8504 36 64.1116 36 64.3928C36 65.096 36.5826 65.6786 37.2857 65.6786H40.5C40.9018 65.6786 41.2835 65.4777 41.5246 65.1562L62.7388 36.8705C62.8996 36.6495 63 36.3884 63 36.1071ZM49.5 42.5357C49.5 38.2768 46.0446 34.8214 41.7857 34.8214C37.5268 34.8214 34.0714 38.2768 34.0714 42.5357C34.0714 46.7946 37.5268 50.25 41.7857 50.25C46.0446 50.25 49.5 46.7946 49.5 42.5357Z" fill="white"/>
</svg>

<svg width="100" height="100" fill="none" xmlns="http://www.w3.org/2000/svg"><circle cx="50" cy="50" r="47.5" fill="#3E9CDC" stroke="#286690" stroke-width="5"/><path d="M59.786 57.964a2.59 2.59 0 01-2.572 2.572 2.59 2.59 0 01-2.571-2.572 2.59 2.59 0 012.571-2.571 2.59 2.59 0 012.572 2.571zM44.357 42.536a2.59 2.59 0 01-2.571 2.571 2.59 2.59 0 01-2.572-2.571 2.59 2.59 0 012.572-2.572 2.59 2.59 0 012.571 2.572zM64.93 57.964a7.716 7.716 0 00-7.715-7.714 7.716 7.716 0 00-7.714 7.714 7.716 7.716 0 007.714 7.715 7.716 7.716 0 007.715-7.715zM63 36.107c0-.703-.583-1.286-1.286-1.286H58.5c-.402 0-.783.201-1.025.523L36.261 63.629c-.16.221-.261.483-.261.764 0 .703.583 1.286 1.286 1.286H40.5c.402 0 .783-.201 1.025-.523L62.739 36.87c.16-.22.261-.482.261-.763zm-13.5 6.429a7.716 7.716 0 00-7.714-7.715 7.716 7.716 0 00-7.715 7.715 7.716 7.716 0 007.715 7.714 7.716 7.716 0 007.714-7.714z" fill="#fff"/></svg>
